icon-themes/sifr_svg/cmd/lc_styleupdatebyexample.svg

<svg viewBox="0 0 24 24" xmlns="http://www.w3.org/2000/svg"><path d="m1 0c-.554 0-1 .446-1 1v5c0 .554.446 1 1 1h2v-3h5v8.974609l4 2.365235v-11.339844h5v3h2c.554 0 1-.446 1-1v-5c0-.554-.446-1-1-1zm18.011719 8c-.920442 1.024162-1.954749 2.225834-2.730469 3.25-.19095.19768-.28125.44055-.28125.75v.585938.414062h1c.25689 0 .52845-.12983.71875-.3125l1.28125-1.6875v5h2v-5l1.28125 1.6875c.19029.18267.46186.3125.71875.3125h1v-.414062-.585938c0-.30945-.0903-.55232-.28125-.75l-2.6875-3.25zm-18.011719 2v14h22v-1l-3.693359-2.181641-1.804688 2.181641h-2.935547l-.298828-.332031c-.472316-.525539-.967017-1.094572-1.449219-1.667969h-8.818359v-5l8.669922 4.816406c-.386692-.463911-.771217-.93099-1.107422-1.371094-.382095-.395561-.54326-.949425-.5625-1.402343v-.021485-.607422-1.414062h.154297zm14 4v5l-1.28125-1.6875c-.1903-.18267-.46186-.3125-.71875-.3125h-1v.414062.585938c.01313.309172.0903.55232.28125.75.77572 1.024166 1.810027 2.225838 2.730469 3.25h2.019531l2.6875-3.25c.19095-.19768.28125-.44055.28125-.75v-.585938-.414062h-1c-.256867.0034-.52846.12983-.71875.3125l-1.28125 1.6875v-5z" fill="#555753"/></svg>

<svg xmlns="http://www.w3.org/2000/svg" viewBox="0 0 24 24">
  <path
     style="fill:#555753"
     d="M 1 0 C 0.446 0 0 0.446 0 1 L 0 6 C 0 6.554 0.446 7 1 7 L 3 7 L 3 4 L 8 4 L 8 12.974609 L 12 15.339844 L 12 4 L 17 4 L 17 7 L 19 7 C 19.554 7 20 6.554 20 6 L 20 1 C 20 0.446 19.554 0 19 0 L 1 0 z M 19.011719 8 C 18.091277 9.024162 17.05697 10.225834 16.28125 11.25 C 16.0903 11.44768 16 11.69055 16 12 L 16 12.585938 L 16 13 L 17 13 C 17.25689 13 17.52845 12.87017 17.71875 12.6875 L 19 11 L 19 16 L 21 16 L 21 11 L 22.28125 12.6875 C 22.47154 12.87017 22.74311 13 23 13 L 24 13 L 24 12.585938 L 24 12 C 24 11.69055 23.9097 11.44768 23.71875 11.25 L 21.03125 8 L 19.011719 8 z M 1 10 L 1 24 L 23 24 L 23 23 L 19.306641 20.818359 L 17.501953 23 L 14.566406 23 L 14.267578 22.667969 C 13.795262 22.14243 13.300561 21.573397 12.818359 21 L 4 21 L 4 16 L 12.669922 20.816406 C 12.28323 20.352495 11.898705 19.885416 11.5625 19.445312 C 11.180405 19.049751 11.01924 18.495887 11 18.042969 L 11 18.021484 L 11 17.414062 L 11 16 L 11.154297 16 L 1 10 z M 15 14 L 15 19 L 13.71875 17.3125 C 13.52845 17.12983 13.25689 17 13 17 L 12 17 L 12 17.414062 L 12 18 C 12.01313 18.309172 12.0903 18.55232 12.28125 18.75 C 13.05697 19.774166 14.091277 20.975838 15.011719 22 L 17.03125 22 L 19.71875 18.75 C 19.9097 18.55232 20 18.30945 20 18 L 20 17.414062 L 20 17 L 19 17 C 18.743133 17.0034 18.47154 17.12983 18.28125 17.3125 L 17 19 L 17 14 L 15 14 z "
     />
</svg>
